dist/assets/img/icons/our/card2.svg

<svg width="140" height="121" viewBox="0 0 140 121" fill="none" xmlns="http://www.w3.org/2000/svg">
<path d="M12.1585 65.0811C11.0718 65.1668 10.3539 66.1757 10.6292 67.2305C12.6403 74.9381 20.2743 90.7608 32.8316 101.241C48.8966 114.649 60.3565 111.654 68.4475 107.93C69.0713 107.643 69.4939 107.049 69.5607 106.366C70.4269 97.5011 69.5007 85.6924 51.5676 74.9096C37.5503 66.4811 20.0996 64.4549 12.1585 65.0811Z" fill="#C0E6D9"/>
<path d="M128.508 65.0811C129.594 65.1668 130.312 66.1757 130.037 67.2305C128.026 74.9381 120.392 90.7608 107.835 101.241C91.7697 114.649 80.3097 111.654 72.2188 107.93C71.595 107.643 71.1724 107.049 71.1056 106.366C70.2394 97.5011 71.1656 85.6924 89.0986 74.9096C103.116 66.4811 120.567 64.4549 128.508 65.0811Z" fill="#C0E6D9"/>
<path fill-rule="evenodd" clip-rule="evenodd" d="M69.78 106.633C69.8011 106.546 69.8162 106.456 69.8251 106.366C70.6913 97.5011 69.7651 85.6924 51.832 74.9095C43.7834 70.07 34.6028 67.3413 26.7405 66.0134C28.4973 72.2921 30.9847 78.8717 34.3893 85.0367C45.6364 105.402 57.5004 108.494 66.6094 108.84C67.3343 108.548 68.0349 108.242 68.7119 107.93C69.0672 107.767 69.3573 107.503 69.5535 107.181C69.6296 107 69.7051 106.817 69.78 106.633Z" fill="#AADDCB"/>
<path d="M29.9335 34.9835C28.8337 34.4823 27.622 35.1819 27.5061 36.385C26.6648 45.12 28.2996 64.6141 36.5933 81.47C47.2128 103.053 59.3644 106.222 68.5661 106.841C69.3456 106.893 70.0757 106.472 70.42 105.77C74.4847 97.4919 77.816 85.3838 64.4347 65.3958C53.9839 49.7853 37.9189 38.6225 29.9335 34.9835Z" fill="#D9F6EC"/>
<path fill-rule="evenodd" clip-rule="evenodd" d="M70.8863 106.633C70.8652 106.546 70.8501 106.456 70.8412 106.366C69.975 97.5011 70.9012 85.6924 88.8342 74.9095C96.8828 70.07 106.063 67.3413 113.926 66.0134C112.169 72.2921 109.682 78.8717 106.277 85.0367C95.0299 105.402 83.1659 108.494 74.0569 108.84C73.332 108.548 72.6314 108.242 71.9543 107.93C71.599 107.767 71.309 107.503 71.1128 107.181C71.0367 107 70.9611 106.817 70.8863 106.633Z" fill="#AADDCB"/>
<path d="M110.733 34.9835C111.833 34.4823 113.044 35.1819 113.16 36.385C114.001 45.12 112.367 64.6141 104.073 81.47C93.4535 103.053 81.3019 106.222 72.1002 106.841C71.3206 106.893 70.5906 106.472 70.2462 105.77C66.1815 97.4919 62.8502 85.3838 76.2316 65.3958C86.6824 49.7853 102.747 38.6225 110.733 34.9835Z" fill="#D9F6EC"/>
<path d="M71.6025 8.52855C70.8849 7.66181 69.5961 7.66181 68.8785 8.52854C62.199 16.5965 50.6744 38.1456 48.9871 61C46.8495 89.9536 59.028 100.34 69.2449 106.417C69.8586 106.782 70.6223 106.782 71.236 106.417C81.4529 100.34 93.6314 89.9536 91.4939 61C89.8066 38.1456 78.2819 16.5965 71.6025 8.52855Z" fill="#E8F9F4"/>
<circle cx="69.7405" cy="9" r="9" fill="#E7F6FF"/>
<path fill-rule="evenodd" clip-rule="evenodd" d="M64.2405 35.5C64.2405 38.5 64.2405 42.8 62.2405 44C60.2405 45.2 55.4072 46.5 52.7405 47C50.4072 47.3333 44.7405 48.5 43.7405 55C43.0081 59.7606 40.2405 85 40.2405 85L22.7405 95.5L18.7405 92.5C16.4072 92.1667 11.6405 92 11.2405 94C10.7405 96.5 13.2405 104 23.7405 102L44.2405 93.5C45.9072 93 48.5723 90.6728 49.7405 86C51.2405 80 52.2405 72 52.7405 68C52.7405 68 53.2405 78 55.2405 80C58.0019 82.7613 59.2405 85 58.7405 87.5C58.586 88.2727 57.743 89.0993 56.7738 90.0497C55.8931 90.9134 54.908 91.8793 54.2405 93C53.9627 93.4665 53.7213 94.1364 53.4603 94.8611C52.8059 96.6774 52.0276 98.8375 50.2405 99C49.6176 99.0566 48.9848 99.1139 48.3443 99.1718L48.2622 99.1792L48.2543 99.1799C37.603 100.143 24.8517 101.296 19.7405 103C11.8736 105.622 13.2405 117.5 22.7405 117.5H58.2405C60.681 117.5 62.1685 116.904 63.6915 116.295C65.2888 115.655 66.925 115 69.7405 115C72.5561 115 74.1923 115.655 75.7896 116.295C77.3126 116.904 78.8001 117.5 81.2405 117.5H116.741C126.241 117.5 127.608 105.622 119.741 103C114.629 101.296 101.878 100.143 91.2268 99.1799C90.5555 99.1192 89.8927 99.0593 89.2405 99C87.4535 98.8375 86.6752 96.6774 86.0208 94.8611C85.7597 94.1364 85.5184 93.4665 85.2405 93C84.5731 91.8793 83.588 90.9134 82.7072 90.0497C81.738 89.0993 80.8951 88.2727 80.7405 87.5C80.2405 85 81.4792 82.7613 84.2405 80C86.2405 78 86.7405 68 86.7405 68C87.2405 72 88.2405 80 89.7405 86C90.9087 90.6728 93.5739 93 95.2405 93.5L115.741 102C126.241 104 128.741 96.5 128.241 94C127.841 92 123.074 92.1667 120.741 92.5L116.741 95.5L99.2405 85C98.629 80.6319 97.8981 73.9083 97.2356 67.8131C96.6342 62.2802 96.089 57.2652 95.7405 55C94.7405 48.5 89.0739 47.3333 86.7405 47C84.0739 46.5 79.2405 45.2 77.2405 44C75.2405 42.8 75.2405 38.5 75.2405 35.5C76.6728 34.7839 78.6179 32.7856 79.6068 27.8526C80.3441 27.2801 80.9401 25.9436 81.0849 24.3443C81.2312 22.7277 80.8757 21.2925 80.2404 20.6053C80.2405 20.5703 80.2405 20.5352 80.2405 20.5C80.2405 11.3 73.4072 9 69.7405 9C66.0934 9 59.3131 11.2756 59.2411 20.3539C58.4248 20.877 57.9334 22.4916 58.1011 24.3443C58.2674 26.181 59.0288 27.6711 59.9158 28.0554C60.9168 32.8406 62.8281 34.7938 64.2405 35.5Z" fill="#86B2D7"/>
<path d="M89.1931 83.6445C90.1249 80.5215 90.7774 77.5817 91.1711 74.5209C91.8145 69.5184 91.752 64.3056 91.188 57.573C91.0718 56.1865 89.8701 55.158 88.5039 55.2759C87.1377 55.3938 86.1243 56.6134 86.2405 58C86.4315 60.2798 86.5605 62.3486 86.6232 64.2667C86.7858 69.2425 86.7939 68.2667 86.7939 68.2667C87.2239 71.7065 88.0236 78.1042 89.1931 83.6445Z" fill="#6A9CC4"/>
<path d="M85.7405 76.5C85.0454 75.6084 83.6165 75.3959 82.5544 75.8934C81.1398 76.5561 79.0989 78.0473 77.6383 79.8525C76.3048 81.5007 74.5713 84.6086 76.5637 87.6418C77.5312 89.1147 78.0746 90.4262 78.5447 91.6749C78.6033 91.8307 78.6631 91.9931 78.7248 92.1606L78.7262 92.1645C79.1179 93.2278 79.5845 94.4947 80.2985 95.5636C82.274 98.5209 85.6722 99.5941 91.9366 99.8484C92.5035 99.8714 93.0336 99.6996 93.4642 99.3918C91.9891 99.2576 91.1403 99.1273 89.7405 99C87.3094 98.779 86.474 95.7346 85.7405 94C84.449 90.946 81.2405 89 80.7405 87.5C80.217 85.9297 81.4791 82.7613 84.2405 80C84.8289 79.4116 85.3863 78.0149 85.7405 76.5Z" fill="#6A9CC4"/>
<path d="M121.144 103.672C120.866 104.183 120.76 104.793 120.888 105.409C121.527 108.489 120.721 110.418 119.668 111.668C118.603 112.932 117.132 113.668 116.067 113.961H16.5626C16.2745 113.961 15.9978 114.01 15.7405 114.102C17.0336 116.074 19.3487 117.5 22.6398 117.5H58.1398C60.5802 117.5 62.0678 116.904 63.5907 116.295C65.188 115.655 66.8243 115 69.6398 115C72.4553 115 74.0916 115.655 75.6889 116.295C77.2118 116.904 78.6994 117.5 81.1398 117.5H116.64C125.481 117.5 127.278 107.213 121.144 103.672Z" fill="#6A9CC4"/>
<path d="M52.7586 66.7325C52.8058 64.0815 53.0102 61.1595 53.2973 57.7333C53.4135 56.3467 52.4001 55.1271 51.0339 55.0092C49.6677 54.8913 48.466 55.9198 48.3498 57.3063C47.7857 64.0389 47.7232 69.2517 48.3667 74.2542C48.7692 77.3836 49.3651 80.1795 50.2727 83.2254C51.4247 77.7206 52.2138 71.4083 52.6398 68L52.7586 66.7325Z" fill="#6A9CC4"/>
<circle cx="69.7405" cy="25" r="5" fill="#FFC9F0"/>
<circle cx="69.7405" cy="9" r="5" fill="white"/>
<circle cx="69.7405" cy="41" r="5" fill="#72ECF4"/>
<circle cx="69.7405" cy="57" r="5" fill="#A4EA6E"/>
<circle cx="69.7405" cy="73" r="5" fill="#FFE766"/>
<circle cx="69.7405" cy="89" r="5" fill="#FFD000"/>
<circle cx="69.7405" cy="105" r="5" fill="#FF6C81"/>
</svg>

<svg width="140" height="121" fill="none" xmlns="http://www.w3.org/2000/svg"><path d="M12.159 65.081a1.701 1.701 0 00-1.53 2.15c2.011 7.707 9.645 23.53 22.203 34.01 16.065 13.408 27.524 10.413 35.616 6.689a1.926 1.926 0 001.113-1.564c.866-8.865-.06-20.674-17.993-31.456-14.018-8.43-31.468-10.455-39.41-9.83zm116.349 0a1.701 1.701 0 011.529 2.15c-2.011 7.707-9.645 23.53-22.202 34.01-16.065 13.408-27.525 10.413-35.616 6.689a1.926 1.926 0 01-1.113-1.564c-.867-8.865.06-20.674 17.993-31.456 14.017-8.429 31.468-10.455 39.409-9.829z" fill="#C0E6D9"/><path fill-rule="evenodd" clip-rule="evenodd" d="M69.78 106.633c.021-.087.036-.177.045-.267.866-8.865-.06-20.674-17.993-31.457-8.049-4.839-17.23-7.568-25.091-8.896 1.756 6.28 4.244 12.859 7.648 19.024 11.247 20.365 23.111 23.457 32.22 23.803a46.803 46.803 0 002.103-.91c.355-.163.645-.427.841-.749.077-.181.152-.364.227-.548z" fill="#AADDCB"/><path d="M29.933 34.983a1.7 1.7 0 00-2.427 1.402c-.841 8.735.794 28.23 9.087 45.085 10.62 21.583 22.771 24.752 31.973 25.371.78.052 1.51-.369 1.854-1.071 4.065-8.278 7.396-20.386-5.985-40.374-10.451-15.61-26.516-26.773-34.502-30.413z" fill="#D9F6EC"/><path fill-rule="evenodd" clip-rule="evenodd" d="M70.886 106.633a1.953 1.953 0 01-.045-.267c-.866-8.865.06-20.674 17.993-31.457 8.049-4.839 17.229-7.568 25.092-8.896-1.757 6.28-4.244 12.859-7.649 19.024-11.247 20.365-23.111 23.457-32.22 23.803a46.858 46.858 0 01-2.103-.91 1.926 1.926 0 01-.841-.749 49.93 49.93 0 01-.227-.548z" fill="#AADDCB"/><path d="M110.733 34.983a1.7 1.7 0 012.427 1.402c.841 8.735-.793 28.23-9.087 45.085-10.62 21.583-22.771 24.752-31.973 25.371a1.919 1.919 0 01-1.854-1.071c-4.064-8.278-7.396-20.386 5.986-40.374 10.45-15.61 26.515-26.773 34.501-30.413z" fill="#D9F6EC"/><path d="M71.603 8.529a1.752 1.752 0 00-2.724 0C62.199 16.596 50.674 38.146 48.987 61c-2.138 28.954 10.041 39.34 20.258 45.417a1.947 1.947 0 001.991 0C81.453 100.34 93.631 89.954 91.494 61 89.807 38.146 78.282 16.596 71.603 8.529z" fill="#E8F9F4"/><circle cx="69.74" cy="9" r="9" fill="#E7F6FF"/><path fill-rule="evenodd" clip-rule="evenodd" d="M64.24 35.5c0 3 0 7.3-2 8.5-2 1.2-6.833 2.5-9.5 3-2.333.333-8 1.5-9 8-.732 4.76-3.5 30-3.5 30l-17.5 10.5-4-3c-2.333-.333-7.1-.5-7.5 1.5-.5 2.5 2 10 12.5 8l20.5-8.5c1.667-.5 4.332-2.827 5.5-7.5 1.5-6 2.5-14 3-18 0 0 .5 10 2.5 12 2.762 2.761 4 5 3.5 7.5-.154.773-.997 1.6-1.966 2.55-.88.863-1.866 1.83-2.534 2.95-.277.466-.519 1.136-.78 1.861-.654 1.816-1.432 3.977-3.22 4.139l-1.896.172-.082.007h-.008c-10.651.964-23.402 2.117-28.513 3.821-7.867 2.622-6.5 14.5 3 14.5h35.5c2.44 0 3.928-.596 5.45-1.205 1.598-.64 3.234-1.295 6.05-1.295 2.815 0 4.451.655 6.049 1.295 1.523.609 3.01 1.205 5.45 1.205h35.501c9.5 0 10.867-11.878 3-14.5-5.112-1.704-17.863-2.857-28.514-3.82L89.24 99c-1.786-.162-2.565-2.323-3.22-4.139-.26-.725-.502-1.395-.78-1.861-.667-1.12-1.652-2.087-2.533-2.95-.969-.95-1.812-1.777-1.966-2.55-.5-2.5.738-4.739 3.5-7.5 2-2 2.5-12 2.5-12 .5 4 1.5 12 3 18 1.168 4.673 3.833 7 5.5 7.5l20.5 8.5c10.5 2 13-5.5 12.5-8-.4-2-5.167-1.833-7.5-1.5l-4 3-17.5-10.5c-.612-4.368-1.343-11.092-2.005-17.187C96.634 62.28 96.089 57.265 95.74 55c-1-6.5-6.666-7.667-9-8-2.666-.5-7.5-1.8-9.5-3s-2-5.5-2-8.5c1.433-.716 3.378-2.714 4.367-7.647.737-.573 1.333-1.91 1.478-3.509.146-1.616-.21-3.052-.845-3.739V20.5c0-9.2-6.833-11.5-10.5-11.5-3.647 0-10.427 2.276-10.499 11.354-.816.523-1.308 2.138-1.14 3.99.166 1.837.928 3.327 1.815 3.711 1 4.786 2.912 6.739 4.325 7.445z" fill="#86B2D7"/><path d="M89.193 83.644c.932-3.123 1.584-6.062 1.978-9.123.643-5.003.581-10.215.017-16.948-.116-1.386-1.318-2.415-2.684-2.297-1.366.118-2.38 1.337-2.264 2.724.192 2.28.32 4.349.383 6.267.163 4.976.17 4 .17 4 .43 3.44 1.23 9.837 2.4 15.377zM85.74 76.5c-.695-.892-2.123-1.104-3.186-.607-1.414.663-3.455 2.154-4.916 3.96-1.333 1.648-3.067 4.756-1.074 7.789.967 1.473 1.51 2.784 1.98 4.033.06.156.12.318.18.486l.002.004c.392 1.063.859 2.33 1.573 3.399 1.975 2.957 5.373 4.03 11.638 4.284a2.446 2.446 0 001.527-.456c-1.475-.134-2.324-.265-3.724-.392-2.43-.221-3.266-3.265-4-5-1.291-3.054-4.5-5-5-6.5-.523-1.57.74-4.739 3.5-7.5.589-.588 1.146-1.985 1.5-3.5zm35.404 27.172a2.542 2.542 0 00-.256 1.737c.639 3.08-.167 5.009-1.22 6.259-1.065 1.264-2.536 2-3.601 2.293H16.563c-.288 0-.565.049-.822.141 1.293 1.972 3.608 3.398 6.899 3.398h35.5c2.44 0 3.928-.596 5.45-1.205 1.598-.64 3.234-1.295 6.05-1.295 2.815 0 4.452.655 6.049 1.295 1.523.609 3.01 1.205 5.45 1.205h35.501c8.841 0 10.638-10.287 4.504-13.828zM52.759 66.733c.047-2.651.251-5.574.538-9 .117-1.386-.897-2.606-2.263-2.724-1.366-.118-2.568.91-2.684 2.297-.564 6.733-.627 11.946.017 16.948a54.92 54.92 0 001.906 8.971c1.152-5.504 1.94-11.817 2.367-15.225l.119-1.267z" fill="#6A9CC4"/><circle cx="69.74" cy="25" r="5" fill="#FFC9F0"/><circle cx="69.74" cy="9" r="5" fill="#fff"/><circle cx="69.74" cy="41" r="5" fill="#72ECF4"/><circle cx="69.74" cy="57" r="5" fill="#A4EA6E"/><circle cx="69.74" cy="73" r="5" fill="#FFE766"/><circle cx="69.74" cy="89" r="5" fill="#FFD000"/><circle cx="69.74" cy="105" r="5" fill="#FF6C81"/></svg>
